X: 42576
T: When The Sea Hound Left Me
R: reel
M: 4/4
K: Eminor
E3F e3f|e3A B3e|d3B d3e|B3A F3D|
E3F e3f|e3A B3e|d3D A3F|E8|
E3F e3f|e3f B3e|d3B d3e|B3A F3D|
E3F e3f|e3A B3e|d3D A3F|E8||
e3f g3f|e3A B3e/f/|a3f ed3|Bd3 D4|
e3f g3f|e3A B3e|d3D A3F|E8|
e3f g3f|e3A B3e/f/|a3f ed3|Bd3 D4|
E3F e3f|e3A B3e|d3D A3F|E8||

